X:1
T:Jesus Our Strength
T:Jesus Our Strength
T:John Bunyan Herbert
T:Minerva Dayton Bateham, 1874
T:Public Domain Courtesy of the Cyber Hymnal™
T:Public Domain Courtesy of the Cyber Hymnal™
C:John Bunyan Herbert
Z:Public Domain
Z:Courtesy of the Cyber Hymnal™
%%score ( 1 2 ) ( 3 4 )
L:1/8
Q:1/4=110
M:6/8
K:Eb
V:1 treble 
V:2 treble 
V:3 bass 
V:4 bass 
V:1
 [EG]2 [EA] (GF)[B,E] | [EG]2 [FA] [GB]3 | [FB]2 [DF] ([DF][EG])[FA] | [EG]3- [EG]2 z | %4
w: 1.~I am Thine, * my|bless- éd Lord,|Thou hast died * for|me. *|
w: 2.~Oft me- thinks * I|hear Thy voice,|“I have died * for|thee; *|
w: 3.~Guid- ed ev- * er|by Thy love,|All my way * is|bright; *|
w: 4.~So I’ll glad- * ly|jour- ney on|Toward my heav’n- * ly|home; *|
 [EG]2 [EA] (GF)[B,E] | [EG]2 [FA] [GB]3 | [FB]2 [DF] ([FA][EG])[DF] | E3- E2 z | %8
w: All I have * and|all I am,|Now be- longs * to|Thee; *|
w: What has thou * to-|day, my child,|Wrought in love * for|Me?” *|
w: Bur- dens Thou * dost|send me, Lord,|Borne for Thee * are|light. *|
w: Walk- ing in * Thy|strength a- lone,|Till the end * shall|come. *|
 [DF]2 [DF] ([DF][EG])[DF] | [FB]2 [Fc] [Fd]3 | [DF]2 [DF] ([DF][EG])[DF] | [DB]2 [Ec] [DB]3 | %12
w: Give me of * Thy|heav’n- ly store,|Grace to love * and|serve Thee more,|
w: On- ly lit- * tle|du- ties done,|Tri- als borne * and|vic- tories won,|
w: While I close- * ly|cling to Thee,|What can harm * or|hin- der me?|
w: Then when Thy * dear|face i see,|This shall be * my|on- y plea:|
 [EG]2 [EA] (GF)[B,E] | [EG]2 [FA] [GB]3 | [FB]2 [DF] ([FA][EG])[DF] | E3- E2 z || %16
w: Let Thy blood, * a|cleans- ing flood,|Make me pure * and|free. *|
w: Small to show, * yet|this I know,|They were done * for|Thee. *|
w: Ev- ery day * a|lit- tle way|Near- er Heaven * and|Thee. *|
w: I have tried— * but|Thou hast died,|Died, dear Lord, * for|me. *|
"^Refrain" [EA]2 [EA] [EG]2 [EG] | [Ec]2 [Ec] [EB]3 | [EA]2 [EA] [EG]2 [EG] | [Ec]2 [Ec] [EB]3 | %20
w: In Thy love and|full- ness wide,|All my im- per-|fect- ions hide,|
w: ||||
w: Last Verse: * *||||
w: In Thy love and|full- ness wide,|All my im- per-|fect- ions hide,|
 [EG]2 [EA] (GF)[B,E] | [EG]2 [FA] [GB]3 | [FB]2 [DF] ([FA][EG])[DF] | E3- E2 z |] %24
w: Ev- er in * my|heart a- bide,|All in all * to|me. *|
w: ||||
w: ||||
w: Je- sus, Sav- * ior,|friend and guide,|Let me dwell * with|Thee! *|
V:2
 x3 E2 x | x6 | x6 | x6 | x3 E2 x | x6 | x6 | E3- E2 x | x6 | x6 | x6 | x6 | x3 E2 x | x6 | x6 | %15
 E3- E2 x || x6 | x6 | x6 | x6 | x3 E2 x | x6 | x6 | E3- E2 x |] %24
V:3
 [E,B,]2 [E,C] (B,A,)[E,G,] | [E,B,]2 [E,E] [E,E]3 | [B,,D]2 [B,,B,] [B,,B,]2 [B,,B,] | %3
 [E,B,]3- [E,B,]2 z | [E,B,]2 [E,C] (B,A,)[E,G,] | [E,B,]2 [E,E] [E,E]3 | %6
 [B,,D]2 [B,,B,] [B,,B,]2 [B,,A,] | [E,G,]3- [E,G,]2 z | [B,,B,]2 [B,,B,] [B,,B,]2 [B,,B,] | %9
 [D,B,]2 [F,=A,] B,3 | [B,,B,]2 [B,,B,] [B,,B,]2 [B,,B,] | [G,B,]2 [F,=A,] [B,,B,]3 | %12
 [E,B,]2 [E,C] (B,A,)[E,G,] | [E,B,]2 [E,E] [E,E]3 | [B,,D]2 [B,,B,] [B,,B,]2 [B,,A,] | %15
 [E,G,]3- [E,G,]2 z || [A,,C]2 [C,C] [E,B,]2 [E,B,] | A,2 A, [E,G,]3 | %18
 [A,,C]2 [C,C] [E,B,]2 [E,B,] | A,2 A, [E,G,]3 | [E,B,]2 [E,C] (B,A,)[E,G,] | %21
 [E,B,]2 [E,E] [E,E]3 | [B,,D]2 [B,,B,] [B,,B,]2 [B,,A,] | [E,G,]3- [E,G,]2 z |] %24
V:4
 x3 E,2 x | x6 | x6 | x6 | x3 E,2 x | x6 | x6 | x6 | x6 | x3 B,3 | x6 | x6 | x3 E,2 x | x6 | x6 | %15
 x6 || x6 | A,2 A, x3 | x6 | A,2 A, x3 | x3 E,2 x | x6 | x6 | x6 |] %24

